melody-of-light/img/icons/minimize.svg

<svg width="36" height="36" viewBox="0 0 36 36" fill="none" xmlns="http://www.w3.org/2000/svg">
<rect width="36" height="36" rx="18" fill="white" fill-opacity="0.7"/>
<path d="M23.9537 16.3333H19.668M19.668 16.3333V12.0475M19.668 16.3333L24.668 11.3333" stroke="#212123" stroke-width="1.2" stroke-linecap="round" stroke-linejoin="round"/>
<path d="M12.1673 19.6665H16.334M16.334 19.6665V23.8332M16.334 19.6665L11.334 24.6665" stroke="#212123" stroke-width="1.2" stroke-linecap="round" stroke-linejoin="round"/>
</svg>

<svg width="36" height="36" fill="none" xmlns="http://www.w3.org/2000/svg"><rect width="36" height="36" rx="18" fill="#fff" fill-opacity=".7"/><path d="M23.954 16.333h-4.286m0 0v-4.285m0 4.285l5-5m-12.501 8.333h4.167m0 0v4.167m0-4.166l-5 5" stroke="#212123" stroke-width="1.2" stroke-linecap="round" stroke-linejoin="round"/></svg>
